X: 1675
T: Sarı Kurdelem Sarı
C: Fahri Kayahan
O: Turkey
F: http://compmusic.upf.edu/node/140
N: hicaz--sarki--nimsofyan--sari_kurdelem--fahri_kayahan
N: makam= hicaz
N: form= sarki
N: usul= nimsofyan = 2/4
M: 2/4
L: 1/16
K: C _7/8B ^f ^c 
Q: 1/4=84
%%MIDI tuningsystem comma53
z2{z}a=b a2g2  | a3=c' =bagf  | e2{z}ga g2f2  | \
w:   |   |   | 
g3=b agfe  | 
w:   | 
d2{z}=b=c' baag  | gffe e4  | {zz}z2fg2fg2  | \
w:   |   |   | 
gbag =fed2  | 
w:   | 
{z}z2e=f2ef2  | =fagf edc2  | {z}z2e=f efed  | \
w:   |   |   | 
d3/2c/de dedc  | 
w:   | 
{z}z2e=f efed  | d3/2c/de dedc  | {z}z2gg g2=fe  | 
w:   |   |   | 
=fede d2c2  | dcBc B2A2  | {z}A2Bc defg  | \
w:   |   |   | 
a4 {z}fga2  | 
w:  *  Sa *  rı   | 
a4 a4  | {z}fga2 a4  | aggf g4  | {z}gfed fga2  | \
w:  kur de  |  lem  *  *  sa  |  rı    |  SAZ *  *  *  Dağ *  la  | 
a4 a4  | {z}fga2 a3=b  | 
w:  ra  sal  |  dım  *  *  yâ  | 
aggf g4  | {z}gfed fga2  | a4 a4  | {z}fga2 a4  | \
w:  ri    |  SAZ *  *  *  Dağ *  lar   |  kur bâ  |  nın  *  *  o  | 
aggf a2g2  | 
w:  lam  *  *  *  a man    | 
g8  | g8  | {z}afge =f4  | {z}ge=fd e4  | {z}=fdec d4  | \
w:   |   |   |   |   | 
{z}g4 g2g2  | g=ffe fede  | 
w:  *  Tez  gön  |  der  *  *  *  naz  | 
dc2d cBBA  | A4 {z}ABcd  | e4 {z}c2d2  | e8  | \
w:  lı  *  *  yâ  |  ri   SAZ  |  *  Yan dım   |  hey   | 
{z}a8  | a8  | {z}=bgaf g4  | 
w:   |   |   | 
{z}afge =f4  | {z}ge=fd e4  | {z}=fdec d2e^f  | \
w:   |   |   | 
g4 {z}g2g2  | g=ffe fede  | 
w:  *  val lah   |  yan *  *  *  dım   | 
dc2d cBBA  | A4 z4  | {z}e=f2e f2z2  | {z}=f2ef e4  | \
w:  es *  *  me  |  rim    |  Ben_ es me ri   |  fın dık_ i le    | 
{z}e=f2e f2z2  | 
w:  Ben_ es me ri   | 
{z}=f2ef e4  | {z}ga3 a2a2  | {z}g2=f2 e2d2  | \
w:  fıs tık_ i le    |  Ben_ es me ri   |  bâ dem_ i le   | 
c3d cBBA  | A4 z4  | {z}e=f2e f2z2  | 
w:  bes *  le  |  rim    |  Ben_ es me ri   | 
{z}=f2ef e4  | {z}e=f2e f2z2  | {z}=f2ef e4  | \
w:  fın dık_ i le    |  Ben_ es me ri   |  fıs tık_ i le    | 
{z}ga3 a2a2  | {z}g2=f2 e2d2  | 
w:  Ben_ es me ri   |  bâ dem_ i le   | 
c3d cBBA  | A4 z4  | {z}z2{z}a=b a2g2  | \
w:  bes *  le  |  rim    |   | 
a3=c' =bagf  | e2{z}ga g2f2  | 
w:   |   | 
g3=b agfe  | d2{z}=b=c' baag  | gffe e4  | \
w:   |   |   | 
{zz}z2fg2fg2  | 
w:   | 
gbag =fed2  | {z}z2e=f2ef2  | =fagf edc2  | \
w:   |   |   | 
{z}z2e=f efed  | 
w:   | 
d3/2c/de dedc  | {z}z2e=f efed  | d3/2c/de dedc  | 
w:   |   |   | 
{z}z2gg g2=fe  | =fede d2c2  | dcBc B2A2  | \
w:   |   |   | 
{z}A2Bc defg  | 
w:   | 
a4 {z}fga2  | a4 a4  | {z}fga2 a4  | aggf g4  | \
w:  *  Sa *  rı   |  kur de  |  lem  *  *  sa  |  rı    | 
{z}gfed fga2  | 
w:  SAZ *  *  *  Dağ *  la  | 
a4 a4  | {z}fga2 a3=b  | aggf g4  | {z}gfed fga2  | \
w:  ra  sal  |  dım  *  *  yâ  |  ri    |  SAZ *  *  *  Dağ *  lar   | 
a4 a4  | 
w:  kur bâ  | 
{z}fga2 a4  | aggf a2g2  | g8  | g8  | {z}afge =f4  | \
w:  nın  *  *  o  |  lam  *  *  *  a man    |   |   |   | 
{z}ge=fd e4  | 
w:   | 
{z}=fdec d4  | {z}g4 g2g2  | g=ffe fede  | \
w:   |  *  Tez  gön  |  der  *  *  *  naz  | 
dc2d cBBA  | 
w:  lı  *  *  yâ  | 
A4 {z}ABcd  | e4 {z}c2d2  | e8  | {z}a8  | a8  | \
w:  ri   SAZ  |  *  Yan dım   |  hey   |   |   | 
{z}=bgaf g4  | {z}afge =f4  | 
w:   |   | 
{z}ge=fd e4  | {z}=fdec d2e^f  | g4 {z}g2g2  | \
w:   |   |  *  val lah   | 
g=ffe fede  | 
w:  yan *  *  *  dım   | 
dc2d cBBA  | A4 z4  | {z}e=f2e f2z2  | {z}=f2ef e4  | \
w:  es *  *  me  |  rim    |  Ben_ es me ri   |  fın dık_ i le    | 
{z}e=f2e f2z2  | 
w:  Ben_ es me ri   | 
{z}=f2ef e4  | {z}ga3 a2a2  | {z}g2=f2 e2d2  | \
w:  fıs tık_ i le    |  Ben_ es me ri   |  bâ dem_ i le   | 
c3d cBBA  | A4 z4  | {z}e=f2e f2z2  | 
w:  bes *  le  |  rim    |  Ben_ es me ri   | 
{z}=f2ef e4  | {z}e=f2e f2z2  | {z}=f2ef e4  | \
w:  fın dık_ i le    |  Ben_ es me ri   |  fıs tık_ i le    | 
{z}ga3 a2a2  | {z}g2=f2 e2d2  | 
w:  Ben_ es me ri   |  bâ dem_ i le   | 
c3d cBBA  | A4 z4  | |


